src/lib/packages/icons/src/assets/filled/octagon.svg

<svg width="24" height="24" viewBox="0 0 24 24" fill="none" xmlns="http://www.w3.org/2000/svg">
<path d="M16.439 3.43896L20.5601 7.56006C20.8411 7.84106 20.999 8.22309 20.999 8.62109V15.3779C20.999 15.7759 20.8411 16.157 20.5601 16.439L16.439 20.5601C16.158 20.8411 15.7759 20.999 15.3779 20.999H8.62109C8.22309 20.999 7.84206 20.8411 7.56006 20.5601L3.43896 16.439C3.15796 16.158 3 15.7759 3 15.3779V8.62109C3 8.22309 3.15796 7.84206 3.43896 7.56006L7.56006 3.43896C7.84106 3.15796 8.22309 3 8.62109 3H15.3779C15.7769 3 16.158 3.15796 16.439 3.43896Z" fill="currentColor"/>
</svg>

<svg xmlns="http://www.w3.org/2000/svg" width="24" height="24" fill="none"><path fill="currentColor" d="M16.439 3.439 20.56 7.56A1.5 1.5 0 0 1 21 8.621v6.757c0 .398-.158.779-.439 1.061L16.44 20.56a1.501 1.501 0 0 1-1.061.439H8.62c-.398 0-.779-.158-1.06-.439l-4.122-4.12A1.501 1.501 0 0 1 3 15.378V8.62c0-.398.158-.779.439-1.06L7.56 3.438A1.5 1.5 0 0 1 8.621 3h6.757a1.5 1.5 0 0 1 1.061.439Z"/></svg>
